img/logo/logo-footer.svg

<svg width="288" height="69" viewBox="0 0 288 69" fill="none" xmlns="http://www.w3.org/2000/svg">
<path fill-rule="evenodd" clip-rule="evenodd" d="M35.9821 19.4662H35.9717V11.5027H35.9764C35.9764 11.1232 36.0569 10.7362 36.2282 10.3679L36.267 10.2864L36.2717 10.2883C36.5509 9.68862 37.0461 9.20792 37.6575 8.94276C37.9926 8.79753 38.3637 8.71694 38.7526 8.71694C42.1717 8.72444 45.3777 9.63052 48.1417 11.2085C50.9909 12.8341 53.3687 15.1682 55.028 17.9632C55.5364 18.7841 55.5866 19.8476 55.064 20.7386L55.0147 20.824L55.011 20.8212C54.7781 21.2193 54.4402 21.5642 54.0076 21.8097L47.0408 25.791L40.1536 29.7273C39.7361 29.985 39.2421 30.1331 38.7139 30.1331C38.3485 30.1331 37.9992 30.0619 37.6802 29.9335C36.6845 29.5297 35.9821 28.5608 35.9821 27.4289V19.4662ZM37.4152 63.4595C37.5174 63.451 37.6178 63.4482 37.7171 63.4501C39.0973 63.481 40.2615 64.537 40.3836 65.9304C40.5133 67.4239 39.3954 68.7395 37.8875 68.8679C37.5003 68.9016 36.9939 68.9316 36.3712 68.9588C35.7416 68.9859 35.2352 69 34.8528 69C25.229 69 16.5158 65.1376 10.2088 58.8943C3.90177 52.6511 0 44.026 0 34.4995C0 24.973 3.90177 16.3479 10.2088 10.1046C16.5158 3.86139 25.229 0 34.8528 0C35.2352 0 35.7416 0.013118 36.3712 0.0402911C36.9939 0.0674643 37.5003 0.0974483 37.8875 0.13118C39.3954 0.260487 40.5133 1.5751 40.3836 3.06868C40.2596 4.48356 39.0622 5.54987 37.6547 5.54987C37.5752 5.54987 37.4956 5.54706 37.4152 5.53956C36.8719 5.49271 36.4449 5.46273 36.1354 5.44961C35.8325 5.4365 35.4047 5.42994 34.8528 5.42994C26.7426 5.42994 19.401 8.68321 14.0869 13.9435C8.77283 19.2039 5.48539 26.4722 5.48539 34.4995C5.48539 42.5278 8.77283 49.7952 14.0869 55.0555C19.401 60.3159 26.7426 63.57 34.8528 63.57C35.4047 63.57 35.8325 63.5635 36.1354 63.5504C36.4449 63.5373 36.8719 63.5063 37.4152 63.4595ZM47.6892 28.1729L54.6561 24.1906L54.658 24.1944C54.9305 24.0379 55.2335 23.9264 55.5581 23.8711C56.6893 23.6368 57.8915 24.1334 58.4963 25.1801C60.1916 28.1017 60.999 31.3044 61 34.4751C61.0019 37.7538 60.1395 40.9798 58.5038 43.8077L58.4972 43.804C58.0363 44.6004 57.1787 45.142 56.1913 45.1645C55.6727 45.1964 55.1387 45.0821 54.6561 44.8046L47.6892 40.8234L47.6921 40.8186L40.8777 36.9245C40.411 36.6959 40.0059 36.3342 39.7257 35.8553C38.9686 34.5613 39.4153 32.9038 40.7225 32.1542L47.6892 28.1729ZM35.9953 57.4805V49.5178H36.0057V41.5542C36.0057 40.4288 36.7014 39.4638 37.6906 39.0562C38.0134 38.924 38.3665 38.85 38.7385 38.85C39.2374 38.85 39.7049 38.9831 40.1073 39.2146L40.1091 39.2108L47.0759 43.1921C47.1242 43.2202 47.1705 43.2493 47.217 43.2792L54.0322 47.1744C54.4638 47.4198 54.8028 47.7646 55.0347 48.1629L55.0394 48.1601L55.0887 48.2453C55.6102 49.1364 55.5609 50.1999 55.0526 51.0207C53.3924 53.8159 51.0145 56.15 48.1664 57.7756C45.4024 59.3535 42.1963 60.2596 38.7763 60.2671C38.3996 60.2671 38.0399 60.1912 37.7134 60.0544C37.0867 59.792 36.5803 59.3057 36.2954 58.6958L36.2906 58.6976L36.2527 58.6152C36.0814 58.2478 36 57.8609 36 57.4805H35.9953Z" fill="#347D98"/>
<path fill-rule="evenodd" clip-rule="evenodd" d="M81.2217 21.3823V28.7445C81.2217 28.7716 81.2282 28.7878 81.2412 28.7943C81.2542 28.8008 81.2683 28.791 81.2813 28.7639L86.2744 21.3823H89.1927V35.4828H85.972V27.6981C85.972 27.6711 85.9654 27.6549 85.9524 27.6484C85.9383 27.6418 85.9253 27.6516 85.9112 27.6787L80.8585 35.4828H78V21.3823H81.2217ZM206.612 26.9746H216.799V29.871H206.612V26.9746ZM102.539 21.3823V35.4828H99.3187V31.8618C99.3187 31.7275 99.2514 31.6603 99.1169 31.6603H94.8492C94.7288 31.6603 94.6682 31.7275 94.6682 31.8618V35.4828H91.4474V21.3823H94.6682V28.2419C94.6682 28.3752 94.7288 28.4422 94.8492 28.4422H99.1169C99.2514 28.4422 99.3187 28.3752 99.3187 28.2419V21.3823H102.539ZM117.516 21.3823V24.6003H113.047C112.954 24.6003 112.906 24.648 112.906 24.7411V35.4828H109.685V24.7411C109.685 24.648 109.639 24.6003 109.544 24.6003H105.055V21.3823H117.516ZM122.347 24.6414C122.239 24.6414 122.186 24.6946 122.186 24.8018V27.4772C122.186 27.5975 122.239 27.658 122.347 27.658H128.891V30.8566H122.347C122.239 30.8566 122.186 30.9162 122.186 31.0376V32.0828C122.186 32.19 122.239 32.2441 122.347 32.2441H130.439V35.4622H118.966V21.3823H130.439V24.6414H122.347ZM146.725 35.4622H143.302L139.84 25.8481C139.814 25.7539 139.75 25.7074 139.649 25.7074C139.548 25.7074 139.484 25.7539 139.459 25.8481L135.996 35.4622H132.574L137.646 21.3628H141.653L146.725 35.4622ZM162.709 35.4622H159.286L155.824 25.8481C155.798 25.7539 155.734 25.7074 155.633 25.7074C155.533 25.7074 155.469 25.7539 155.441 25.8481L151.979 35.4622H148.556L153.63 21.3628H157.635L162.709 35.4622ZM167.922 24.6414C167.815 24.6414 167.762 24.6946 167.762 24.8018V27.4772C167.762 27.5975 167.815 27.658 167.922 27.658H174.463V30.8566H167.922C167.815 30.8566 167.762 30.9162 167.762 31.0376V32.0828C167.762 32.19 167.815 32.2441 167.922 32.2441H176.014V35.4622H164.54V21.3823H176.014V24.6414H167.922ZM184.027 28.4228L190.146 35.4828H185.898L181.792 30.7353C181.725 30.6682 181.651 30.6519 181.57 30.6855C181.49 30.7191 181.45 30.7829 181.45 30.8761V35.4828H178.149V21.3823H181.45V25.9889C181.45 26.0821 181.49 26.1428 181.57 26.1699C181.651 26.1969 181.725 26.1764 181.792 26.1092L185.898 21.3823H190.146L184.027 28.4228ZM204.962 21.3823V24.6003H200.492C200.398 24.6003 200.352 24.648 200.352 24.7411V35.4828H197.131V24.7411C197.131 24.648 197.085 24.6003 196.991 24.6003H192.501V21.3823H204.962ZM218.771 21.3823H230.567V35.4426H227.326V24.6003H221.991V35.4426H218.771V21.3823ZM239.747 21.4224C240.593 21.4224 241.387 21.5837 242.132 21.9054C242.876 22.2271 243.529 22.6637 244.086 23.2128C244.641 23.7631 245.082 24.4098 245.403 25.1538C245.725 25.8979 245.887 26.693 245.887 27.5378C245.887 28.2885 245.738 29.0261 245.443 29.7496C245.148 30.4743 244.739 31.1242 244.215 31.7015C243.625 32.3449 242.948 32.8345 242.182 33.1691C241.417 33.5049 240.606 33.6718 239.747 33.6718H236.163V35.4828H232.963V21.4224H239.747ZM239.726 30.4537C240.13 30.4537 240.508 30.38 240.864 30.2328C241.22 30.0855 241.531 29.8807 241.8 29.6197C242.068 29.3576 242.28 29.0489 242.435 28.6936C242.588 28.3383 242.667 27.9603 242.667 27.5573C242.667 27.1555 242.588 26.7764 242.435 26.4211C242.28 26.0658 242.072 25.7539 241.81 25.4853C241.549 25.2178 241.239 25.0065 240.884 24.8527C240.529 24.6979 240.149 24.6209 239.747 24.6209H236.385C236.237 24.6209 236.163 24.6946 236.163 24.8419V30.2534C236.163 30.3865 236.237 30.4537 236.385 30.4537H239.726ZM260.058 35.4828H256.636L256.113 34.0541C256.085 33.961 256.026 33.9132 255.932 33.9132H249.853C249.772 33.9132 249.711 33.961 249.671 34.0541L249.169 35.4828H245.745L250.819 21.3823H254.985L260.058 35.4828ZM250.979 30.4341C250.953 30.5013 250.959 30.5609 250.999 30.6151C251.041 30.6682 251.093 30.6953 251.161 30.6953H254.644C254.817 30.6953 254.878 30.6085 254.824 30.4341L253.093 25.6066C253.053 25.5124 252.986 25.4658 252.892 25.4658C252.797 25.4658 252.738 25.5124 252.71 25.6066L250.979 30.4341ZM272.297 28.3621C272.646 28.751 272.912 29.1864 273.093 29.6695C273.274 30.1526 273.364 30.6552 273.364 31.1784C273.364 31.7676 273.253 32.321 273.032 32.8377C272.812 33.3533 272.505 33.806 272.117 34.1949C271.728 34.5837 271.274 34.8892 270.758 35.1102C270.241 35.3312 269.687 35.4426 269.097 35.4426H261.548V21.4028H269.097C269.702 21.4028 270.265 21.5134 270.787 21.7343C271.311 21.9553 271.767 22.2738 272.157 22.6896C272.505 23.0785 272.778 23.528 272.972 24.0371C273.167 24.5473 273.264 25.0899 273.264 25.6672C273.264 26.6994 272.941 27.5975 272.297 28.3621ZM264.749 26.6324C264.749 26.7526 264.815 26.8133 264.949 26.8133H268.975C269.257 26.8133 269.506 26.7027 269.72 26.4818C269.935 26.2597 270.043 25.9955 270.043 25.6868C270.057 25.378 269.956 25.1202 269.74 24.9122C269.526 24.7044 269.271 24.6003 268.975 24.6003H264.949C264.815 24.6003 264.749 24.661 264.749 24.7824V26.6324ZM264.749 32.0632C264.749 32.1835 264.815 32.2441 264.949 32.2441H269.077C269.372 32.2441 269.628 32.1402 269.842 31.9322C270.057 31.7242 270.163 31.4665 270.163 31.1578C270.149 30.849 270.039 30.5847 269.831 30.3638C269.624 30.1418 269.379 30.0313 269.097 30.0313H264.949C264.815 30.0313 264.749 30.0919 264.749 30.2121V32.0632ZM287.213 23.4738C287.602 24.1714 287.832 24.9188 287.898 25.717C287.966 26.5154 288 27.357 288 28.2419V29.6088H287.979C287.952 30.2121 287.888 30.796 287.788 31.3593C287.688 31.9224 287.496 32.4587 287.213 32.9677C286.717 33.8396 286.007 34.47 285.081 34.8589C284.249 35.2477 283.148 35.4426 281.779 35.4426C280.438 35.4426 279.336 35.2477 278.477 34.8589C277.565 34.4571 276.86 33.8266 276.363 32.9677C275.974 32.2712 275.747 31.5195 275.679 30.7159C275.612 29.9111 275.579 29.0727 275.579 28.2008V26.8338H275.599C275.625 26.2305 275.686 25.6467 275.78 25.0834C275.874 24.5202 276.068 23.984 276.363 23.4738C276.86 22.616 277.565 21.9856 278.477 21.5837C279.336 21.195 280.438 21 281.779 21C283.148 21 284.249 21.195 285.081 21.5837C286.007 21.9726 286.717 22.603 287.213 23.4738ZM284.738 28.2419C284.738 27.5975 284.724 26.9909 284.698 26.4211C284.671 25.8514 284.563 25.4051 284.376 25.0834C284.348 25.0303 284.299 24.9599 284.225 24.8722C284.151 24.7856 284.019 24.6979 283.833 24.6112C283.644 24.5235 283.39 24.4465 283.067 24.3794C282.745 24.3122 282.316 24.2786 281.779 24.2786C281.256 24.2786 280.829 24.3122 280.5 24.3794C280.172 24.4465 279.917 24.5235 279.736 24.6112C279.555 24.6979 279.427 24.7856 279.353 24.8722C279.28 24.9599 279.228 25.0303 279.202 25.0834C279.014 25.4051 278.906 25.8416 278.881 26.3908C278.853 26.941 278.84 27.5303 278.84 28.1606V28.2008C278.84 28.8452 278.853 29.4517 278.881 30.0215C278.906 30.5912 279.014 31.0376 279.202 31.3593C279.228 31.3993 279.28 31.4665 279.353 31.5607C279.427 31.6539 279.555 31.7448 279.736 31.8314C279.917 31.9192 280.172 31.9962 280.5 32.0632C280.829 32.1304 281.256 32.164 281.779 32.164C282.316 32.164 282.745 32.1304 283.067 32.0632C283.39 31.9962 283.644 31.9192 283.833 31.8314C284.019 31.7448 284.151 31.6539 284.225 31.5607C284.299 31.4665 284.348 31.3993 284.376 31.3593C284.563 31.0376 284.671 30.601 284.698 30.0519C284.724 29.5016 284.738 28.9047 284.738 28.2614V28.2419Z" fill="white"/>
<path d="M79.2443 44.1088H78V52.0747H79.2443V48.6908H80.69C80.9155 50.8767 82.4055 52.1836 84.3747 52.1836C86.5089 52.1836 88.0875 50.6395 88.0875 48.0918C88.0875 45.5441 86.5089 44 84.3747 44C82.3491 44 80.831 45.3808 80.6698 47.6834H79.2443V44.1088ZM86.8553 48.0918C86.8553 50.0327 85.7922 51.0868 84.3747 51.0868C82.9531 51.0868 81.8941 50.0327 81.8941 48.0918C81.8941 46.1509 82.9531 45.0968 84.3747 45.0968C85.7922 45.0968 86.8553 46.1509 86.8553 48.0918ZM92.15 52.0747H93.3943V49.2742H95.0857C96.9985 49.2742 97.9449 48.1579 97.9449 46.6876C97.9449 45.2213 97.0065 44.1088 95.0898 44.1088H92.15V52.0747ZM93.3943 48.2551V45.1397H94.9568C96.189 45.1397 96.6925 45.7852 96.6925 46.6876C96.6925 47.59 96.189 48.2551 94.973 48.2551H93.3943ZM102.125 44.1088V52.0747H103.269L107.461 46.2326H107.537V52.0747H108.782V44.1088H107.63L103.434 49.9587H103.357V44.1088H102.125ZM112.694 54H113.886V52.0747H119.423V53.9884H120.615V51.0557H119.681V44.1088H114.595L114.402 47.4733C114.277 49.6904 113.789 50.6044 113.238 51.0557H112.694V54ZM114.704 51.0557C115.175 50.3283 115.493 49.1575 115.594 47.4733L115.723 45.1435H118.489V51.0557H114.704ZM124.7 44.1088V52.0747H125.844L130.036 46.2326H130.112V52.0747H131.357V44.1088H130.204L126.008 49.9587H125.932V44.1088H124.7ZM136.058 44.1088V46.7383C136.054 48.5158 137.17 49.2158 138.974 49.2158C139.767 49.2158 140.451 49.1186 141.044 48.9553V52.0747H142.276V44.1088H141.044V47.9284C140.427 48.088 139.662 48.1852 138.974 48.1852C137.898 48.1852 137.286 47.8351 137.286 46.7383V44.1088H136.058ZM146.909 52.0747H152.128V51.0401H148.154V48.6014H151.81V47.5706H148.154V45.1435H152.08V44.1088H146.909V52.0747ZM163.314 46.6994C163.032 44.9956 161.65 44 159.906 44C157.773 44 156.198 45.5441 156.198 48.0918C156.198 50.6395 157.764 52.1836 159.906 52.1836C161.719 52.1836 163.043 51.0868 163.314 49.5114L162.057 49.5076C161.844 50.5267 160.958 51.0868 159.915 51.0868C158.501 51.0868 157.434 50.0405 157.434 48.0918C157.434 46.1587 158.497 45.0968 159.919 45.0968C160.969 45.0968 161.851 45.6686 162.057 46.6994H163.314ZM172.417 52.0747H173.935L170.512 47.6756L173.81 44.1088H172.292L169.175 47.4733H168.768V44.1088H167.524V52.0747H168.768V48.504H169.646L172.417 52.0747ZM178.505 52.0747L179.263 49.9665H182.484L183.238 52.0747H184.558L181.591 44.1088H180.152L177.185 52.0747H178.505ZM179.625 48.9553L180.841 45.5557H180.906L182.122 48.9553H179.625ZM193.971 52.0747V44.1088H191.031C189.119 44.1088 188.176 45.1397 188.176 46.606C188.176 47.6756 188.68 48.4886 189.69 48.8503L187.863 52.0747H189.281L190.955 49.0603C190.983 49.0603 191.007 49.0603 191.036 49.0603H192.727V52.0747H193.971ZM192.727 48.0257H191.149C189.937 48.0257 189.43 47.5044 189.43 46.606C189.43 45.7036 189.937 45.1397 191.165 45.1397H192.727V48.0257ZM209.117 52.0747H210.635L207.212 47.6756L210.51 44.1088H208.992L205.875 47.4733H205.468V44.1088H204.224V52.0747H205.468V48.504H206.346L209.117 52.0747ZM221.263 48.0918C221.263 45.5441 219.684 44 217.551 44C215.408 44 213.833 45.5441 213.833 48.0918C213.833 50.6356 215.408 52.1836 217.551 52.1836C219.684 52.1836 221.263 50.6395 221.263 48.0918ZM220.032 48.0918C220.032 50.0327 218.969 51.0868 217.551 51.0868C216.129 51.0868 215.07 50.0327 215.07 48.0918C215.07 46.1509 216.129 45.0968 217.551 45.0968C218.969 45.0968 220.032 46.1509 220.032 48.0918ZM225.536 44.1088V52.0747H226.721V46.3064H226.797L229.228 52.0631H230.212L232.644 46.3104H232.721V52.0747H233.905V44.1088H232.393L229.768 50.301H229.672L227.047 44.1088H225.536ZM244.882 44.1088H238.52V52.0747H239.76V45.1357H243.641V52.0747H244.882V44.1088ZM250.203 52.0747L250.96 49.9665H254.182L254.934 52.0747H256.255L253.287 44.1088H251.85L248.882 52.0747H250.203ZM251.323 48.9553L252.539 45.5557H252.603L253.819 48.9553H251.323ZM260.168 52.0747H261.412V48.6014H265.524V52.0747H266.772V44.1088H265.524V47.5706H261.412V44.1088H260.168V52.0747ZM271.306 44.1088V52.0747H272.45L276.642 46.2326H276.718V52.0747H277.963V44.1088H276.81L272.615 49.9587H272.538V44.1088H271.306ZM288 52.0747V44.1088H285.06C283.148 44.1088 282.205 45.1397 282.205 46.606C282.205 47.6756 282.708 48.4886 283.719 48.8503L281.891 52.0747H283.308L284.984 49.0603C285.012 49.0603 285.036 49.0603 285.064 49.0603H286.755V52.0747H288ZM286.755 48.0257H285.176C283.964 48.0257 283.457 47.5044 283.457 46.606C283.457 45.7036 283.964 45.1397 285.193 45.1397H286.755V48.0257Z" fill="white"/>
</svg>

<svg width="288" height="69" fill="none" xmlns="http://www.w3.org/2000/svg"><path fill-rule="evenodd" clip-rule="evenodd" d="M35.982 19.466h-.01v-7.963h.004c0-.38.08-.767.252-1.135l.039-.082.005.002a2.726 2.726 0 0 1 2.48-1.571c3.42.007 6.626.914 9.39 2.492a18.907 18.907 0 0 1 6.886 6.754c.508.821.559 1.885.036 2.776l-.05.085-.003-.003c-.233.398-.57.743-1.003.989L47.04 25.79l-6.887 3.936a2.764 2.764 0 0 1-2.473.206 2.707 2.707 0 0 1-1.699-2.504v-7.963Zm1.433 43.993c.102-.008.203-.01.302-.009 1.38.031 2.544 1.087 2.667 2.48.13 1.494-.989 2.81-2.496 2.938-.388.034-.894.064-1.517.09-.63.028-1.136.042-1.518.042a34.923 34.923 0 0 1-24.644-10.106C3.902 52.651 0 44.026 0 34.5c0-9.526 3.902-18.151 10.209-24.394C16.516 3.86 25.229 0 34.853 0c.382 0 .889.013 1.518.04.623.027 1.13.057 1.517.091 1.507.13 2.625 1.444 2.496 2.938-.124 1.415-1.322 2.48-2.73 2.48-.079 0-.158-.002-.239-.01-.543-.046-.97-.076-1.28-.09-.302-.013-.73-.02-1.282-.02a29.426 29.426 0 0 0-20.766 8.514c-5.314 5.26-8.602 12.53-8.602 20.556 0 8.029 3.288 15.296 8.602 20.556a29.426 29.426 0 0 0 20.766 8.515c.552 0 .98-.007 1.282-.02.31-.013.737-.044 1.28-.09ZM47.69 28.173l6.967-3.982.002.003c.273-.156.575-.268.9-.323a2.75 2.75 0 0 1 2.938 1.31A18.476 18.476 0 0 1 61 34.474a18.635 18.635 0 0 1-2.496 9.333l-.007-.004a2.733 2.733 0 0 1-2.306 1.36 2.736 2.736 0 0 1-1.535-.36l-6.967-3.98.003-.005-6.814-3.895a2.694 2.694 0 0 1-.155-4.77l6.966-3.981ZM35.995 57.48v-7.963h.01v-7.964c0-1.125.696-2.09 1.686-2.498a2.757 2.757 0 0 1 2.416.159l.002-.004 6.967 3.981a3.7 3.7 0 0 1 .141.087l6.815 3.895c.432.246.77.59 1.003.989l.004-.003.05.085a2.684 2.684 0 0 1-.036 2.776 18.92 18.92 0 0 1-6.887 6.755 18.969 18.969 0 0 1-9.39 2.491 2.729 2.729 0 0 1-2.48-1.571l-.005.002-.038-.083A2.68 2.68 0 0 1 36 57.48h-.005Z" fill="#347D98"/><path fill-rule="evenodd" clip-rule="evenodd" d="M81.222 21.382v7.362c0 .028.006.044.02.05.012.007.026-.003.04-.03l4.992-7.382h2.919v14.1h-3.221v-7.784c0-.027-.007-.043-.02-.05-.014-.006-.027.004-.04.03l-5.053 7.805H78v-14.1h3.222Zm125.39 5.593h10.187v2.896h-10.187v-2.896Zm-104.073-5.593v14.1h-3.22v-3.62c0-.134-.068-.202-.202-.202h-4.268c-.12 0-.18.067-.18.202v3.62h-3.222v-14.1h3.221v6.86c0 .133.06.2.181.2h4.268c.134 0 .202-.067.202-.2v-6.86h3.22Zm14.977 0V24.6h-4.469c-.093 0-.141.048-.141.141v10.742h-3.221V24.74c0-.093-.046-.14-.141-.14h-4.489v-3.219h12.461Zm4.831 3.26c-.108 0-.161.053-.161.16v2.675c0 .12.053.181.161.181h6.544v3.199h-6.544c-.108 0-.161.06-.161.18v1.046c0 .107.053.161.161.161h8.092v3.218h-11.473v-14.08h11.473v3.26h-8.092Zm24.378 10.82h-3.423l-3.462-9.614c-.026-.094-.09-.14-.191-.14s-.165.046-.19.14l-3.463 9.614h-3.422l5.072-14.1h4.007l5.072 14.1Zm15.984 0h-3.423l-3.462-9.614c-.026-.094-.09-.14-.191-.14-.1 0-.164.046-.192.14l-3.462 9.614h-3.423l5.074-14.1h4.005l5.074 14.1Zm5.213-10.82c-.107 0-.16.053-.16.16v2.675c0 .12.053.181.16.181h6.541v3.199h-6.541c-.107 0-.16.06-.16.18v1.046c0 .107.053.161.16.161h8.092v3.218H164.54v-14.08h11.474v3.26h-8.092Zm16.105 3.78 6.119 7.06h-4.248l-4.106-4.747c-.067-.067-.141-.083-.222-.05-.08.034-.12.098-.12.191v4.607h-3.301v-14.1h3.301v4.606c0 .093.04.154.12.18.081.028.155.007.222-.06l4.106-4.727h4.248l-6.119 7.04Zm20.935-7.04V24.6h-4.47c-.094 0-.14.048-.14.141v10.742h-3.221V24.74c0-.093-.046-.14-.14-.14h-4.49v-3.219h12.461Zm13.809 0h11.796v14.06h-3.241V24.6h-5.335v10.843h-3.22v-14.06Zm20.976.04c.846 0 1.64.162 2.385.483a6.343 6.343 0 0 1 1.954 1.308c.555.55.996 1.197 1.317 1.94a5.94 5.94 0 0 1 .484 2.385c0 .75-.149 1.488-.444 2.212a6.56 6.56 0 0 1-1.228 1.951 5.996 5.996 0 0 1-2.033 1.468 5.989 5.989 0 0 1-2.435.503h-3.584v1.81h-3.2v-14.06h6.784Zm-.021 9.032a2.944 2.944 0 0 0 2.074-.834c.268-.262.48-.571.635-.926.153-.356.232-.734.232-1.137 0-.401-.079-.78-.232-1.136a3.104 3.104 0 0 0-.625-.936 2.88 2.88 0 0 0-2.063-.864h-3.362c-.148 0-.222.074-.222.22v5.412c0 .134.074.2.222.2h3.341Zm20.332 5.029h-3.422l-.523-1.429c-.028-.093-.087-.14-.181-.14h-6.079c-.081 0-.142.047-.182.14l-.502 1.429h-3.424l5.074-14.1h4.166l5.073 14.1Zm-9.079-5.049a.177.177 0 0 0 .02.181c.042.053.094.08.162.08h3.483c.173 0 .234-.087.18-.26l-1.731-4.828c-.04-.095-.107-.141-.201-.141-.095 0-.154.046-.182.14l-1.731 4.828Zm21.318-2.072c.349.389.615.824.796 1.308.181.483.271.985.271 1.508 0 .59-.111 1.143-.332 1.66a4.29 4.29 0 0 1-2.274 2.272 4.183 4.183 0 0 1-1.661.333h-7.549v-14.04h7.549c.605 0 1.168.11 1.69.331.524.221.98.54 1.37.956.348.388.621.838.815 1.347.195.51.292 1.053.292 1.63 0 1.032-.323 1.93-.967 2.695Zm-7.548-1.73c0 .12.066.181.2.181h4.026c.282 0 .531-.11.745-.331.215-.222.323-.486.323-.795a.966.966 0 0 0-.303-.775 1.06 1.06 0 0 0-.765-.312h-4.026c-.134 0-.2.061-.2.182v1.85Zm0 5.431c0 .12.066.181.2.181h4.128c.295 0 .551-.104.765-.312.215-.208.321-.465.321-.774a1.2 1.2 0 0 0-.332-.794.972.972 0 0 0-.734-.333h-4.148c-.134 0-.2.06-.2.181v1.851Zm22.464-8.59c.389.698.619 1.446.685 2.244.068.798.102 1.64.102 2.525v1.367h-.021a13.451 13.451 0 0 1-.191 1.75 5.14 5.14 0 0 1-.575 1.609 4.308 4.308 0 0 1-2.132 1.89c-.832.39-1.933.585-3.302.585-1.341 0-2.443-.195-3.302-.584a4.46 4.46 0 0 1-2.114-1.891 5.521 5.521 0 0 1-.684-2.252 30.34 30.34 0 0 1-.1-2.515v-1.367h.02c.026-.604.087-1.187.181-1.75.094-.564.288-1.1.583-1.61a4.464 4.464 0 0 1 2.114-1.89c.859-.389 1.961-.584 3.302-.584 1.369 0 2.47.195 3.302.584a4.31 4.31 0 0 1 2.132 1.89Zm-2.475 4.769c0-.645-.014-1.251-.04-1.82-.027-.57-.135-1.017-.322-1.339a1.27 1.27 0 0 0-.151-.21c-.074-.087-.206-.175-.392-.262a3.611 3.611 0 0 0-.766-.232c-.322-.067-.751-.1-1.288-.1-.523 0-.95.033-1.279.1a3.363 3.363 0 0 0-.764.232c-.181.087-.309.175-.383.261a1.212 1.212 0 0 0-.151.211c-.188.322-.296.759-.321 1.308-.028.55-.041 1.14-.041 1.77v.04c0 .644.013 1.25.041 1.82.025.57.133 1.017.321 1.338.026.04.078.107.151.202.074.093.202.184.383.27.181.088.436.165.764.232.329.067.756.101 1.279.101.537 0 .966-.034 1.288-.1a3.6 3.6 0 0 0 .766-.233c.186-.086.318-.177.392-.27.074-.095.123-.162.151-.202.187-.321.295-.758.322-1.307.026-.55.04-1.147.04-1.79v-.02Z" fill="#fff"/><path d="M79.244 44.109H78v7.966h1.244V48.69h1.446c.225 2.186 1.716 3.493 3.685 3.493 2.134 0 3.713-1.544 3.713-4.092 0-2.548-1.58-4.092-3.713-4.092-2.026 0-3.544 1.38-3.705 3.683h-1.426V44.11Zm7.611 3.983c0 1.94-1.063 2.995-2.48 2.995-1.422 0-2.48-1.054-2.48-2.995s1.058-2.995 2.48-2.995c1.417 0 2.48 1.054 2.48 2.995Zm5.295 3.983h1.244v-2.8h1.692c1.913 0 2.859-1.117 2.859-2.587 0-1.467-.938-2.58-2.855-2.58h-2.94v7.967Zm1.244-3.82V45.14h1.563c1.232 0 1.736.645 1.736 1.548 0 .902-.504 1.567-1.72 1.567h-1.579Zm8.731-4.146v7.966h1.144l4.192-5.842h.076v5.842h1.245v-7.966h-1.152l-4.196 5.85h-.077v-5.85h-1.232ZM112.694 54h1.192v-1.925h5.537v1.913h1.192v-2.932h-.934v-6.947h-5.086l-.193 3.364c-.125 2.217-.613 3.131-1.164 3.583h-.544V54Zm2.01-2.944c.471-.728.789-1.898.89-3.583l.129-2.33h2.766v5.913h-3.785Zm9.996-6.947v7.966h1.144l4.192-5.842h.076v5.842h1.245v-7.966h-1.153l-4.196 5.85h-.076v-5.85H124.7Zm11.358 0v2.63c-.004 1.777 1.112 2.477 2.916 2.477.793 0 1.477-.097 2.07-.26v3.119h1.232v-7.966h-1.232v3.82a8.706 8.706 0 0 1-2.07.256c-1.076 0-1.688-.35-1.688-1.447v-2.63h-1.228Zm10.851 7.966h5.219V51.04h-3.974v-2.439h3.656v-1.03h-3.656v-2.427h3.926v-1.035h-5.171v7.966Zm16.405-5.376c-.282-1.703-1.664-2.699-3.408-2.699-2.133 0-3.708 1.544-3.708 4.092 0 2.547 1.566 4.092 3.708 4.092 1.813 0 3.137-1.097 3.408-2.673l-1.257-.003c-.213 1.019-1.099 1.579-2.142 1.579-1.414 0-2.481-1.047-2.481-2.995 0-1.933 1.063-2.995 2.485-2.995 1.05 0 1.932.572 2.138 1.602h1.257Zm9.103 5.376h1.518l-3.423-4.4 3.298-3.566h-1.518l-3.117 3.364h-.407V44.11h-1.244v7.966h1.244v-3.571h.878l2.771 3.57Zm6.088 0 .758-2.108h3.221l.754 2.108h1.32l-2.967-7.966h-1.439l-2.967 7.966h1.32Zm1.12-3.12 1.216-3.4h.065l1.216 3.4h-2.497Zm14.346 3.12v-7.966h-2.94c-1.912 0-2.855 1.03-2.855 2.497 0 1.07.504 1.883 1.514 2.244l-1.827 3.225h1.418l1.674-3.015h1.772v3.015h1.244Zm-1.244-4.05h-1.578c-1.212 0-1.719-.52-1.719-1.419 0-.902.507-1.466 1.735-1.466h1.562v2.886Zm16.39 4.05h1.518l-3.423-4.4 3.298-3.566h-1.518l-3.117 3.364h-.407V44.11h-1.244v7.966h1.244v-3.571h.878l2.771 3.57Zm12.146-3.983c0-2.548-1.579-4.092-3.712-4.092-2.143 0-3.718 1.544-3.718 4.092 0 2.544 1.575 4.092 3.718 4.092 2.133 0 3.712-1.544 3.712-4.092Zm-1.231 0c0 1.94-1.063 2.995-2.481 2.995-1.422 0-2.481-1.054-2.481-2.995s1.059-2.995 2.481-2.995c1.418 0 2.481 1.054 2.481 2.995Zm5.504-3.983v7.966h1.185v-5.769h.076l2.431 5.757h.984l2.432-5.753h.077v5.765h1.184v-7.966h-1.512l-2.625 6.192h-.096l-2.625-6.192h-1.511Zm19.346 0h-6.362v7.966h1.24v-6.94h3.881v6.94h1.241v-7.966Zm5.321 7.966.757-2.108h3.222l.752 2.108h1.321l-2.968-7.966h-1.437l-2.968 7.966h1.321Zm1.12-3.12 1.216-3.4h.064l1.216 3.4h-2.496Zm8.845 3.12h1.244V48.6h4.112v3.474h1.248v-7.966h-1.248v3.462h-4.112v-3.462h-1.244v7.966Zm11.138-7.966v7.966h1.144l4.192-5.842h.076v5.842h1.245v-7.966h-1.153l-4.195 5.85h-.077v-5.85h-1.232ZM288 52.075v-7.966h-2.94c-1.912 0-2.855 1.03-2.855 2.497 0 1.07.503 1.883 1.514 2.244l-1.828 3.225h1.417l1.676-3.015H286.755v3.015H288Zm-1.245-4.05h-1.579c-1.212 0-1.719-.52-1.719-1.419 0-.902.507-1.466 1.736-1.466h1.562v2.886Z" fill="#fff"/></svg>
